X:11
T:11 The New Castle Hornpipe
C:Welch MS
I:abc2nwc
M:C
L:1/8
K:G
gd|B2B2BcAB|G2G2GABc|dBdB edcB|BAcA GFED|
B2B2Bdce|d2d2d2gf|edcB AGFE|D2D2D2:|
GA|B2B2B2AB|cBAG GFED|d2d2d2ef|gfgd cBAG|
e2e2egfg|dgfg dBGB|cBcA BGAF|G2G2G2:|


